img/why-us/button-3.svg

<svg width="49" height="48" viewBox="0 0 49 48" fill="none" xmlns="http://www.w3.org/2000/svg">
<rect x="0.333374" width="48" height="48" rx="12" fill="#F2F2F7"/>
<path d="M30.8033 34.75H26.8033C24.3833 34.75 23.0533 33.42 23.0533 31V17C23.0533 14.58 24.3833 13.25 26.8033 13.25H30.8033C33.2233 13.25 34.5533 14.58 34.5533 17V31C34.5533 33.42 33.2133 34.75 30.8033 34.75ZM26.8033 14.75C25.2233 14.75 24.5533 15.42 24.5533 17V31C24.5533 32.58 25.2233 33.25 26.8033 33.25H30.8033C32.3833 33.25 33.0533 32.58 33.0533 31V17C33.0533 15.42 32.3833 14.75 30.8033 14.75H26.8033Z" fill="#0F172A"/>
<mask id="path-3-inside-1_2125_2403" fill="white">
<path d="M28.8033 18.75H23.8033C23.3933 18.75 23.0533 18.41 23.0533 18C23.0533 17.59 23.3933 17.25 23.8033 17.25H28.8033C29.2133 17.25 29.5533 17.59 29.5533 18C29.5533 18.41 29.2133 18.75 28.8033 18.75Z"/>
</mask>
<path d="M28.8033 18.75H23.8033C23.3933 18.75 23.0533 18.41 23.0533 18C23.0533 17.59 23.3933 17.25 23.8033 17.25H28.8033C29.2133 17.25 29.5533 17.59 29.5533 18C29.5533 18.41 29.2133 18.75 28.8033 18.75Z" fill="#0F172A"/>
<path d="M28.8033 18.75V17.25H23.8033V18.75V20.25H28.8033V18.75ZM23.8033 18.75V17.25C24.2218 17.25 24.5533 17.5816 24.5533 18H23.0533H21.5533C21.5533 19.2384 22.5649 20.25 23.8033 20.25V18.75ZM23.0533 18H24.5533C24.5533 18.4184 24.2218 18.75 23.8033 18.75V17.25V15.75C22.5649 15.75 21.5533 16.7616 21.5533 18H23.0533ZM23.8033 17.25V18.75H28.8033V17.25V15.75H23.8033V17.25ZM28.8033 17.25V18.75C28.3849 18.75 28.0533 18.4184 28.0533 18H29.5533H31.0533C31.0533 16.7616 30.0418 15.75 28.8033 15.75V17.25ZM29.5533 18H28.0533C28.0533 17.5816 28.3849 17.25 28.8033 17.25V18.75V20.25C30.0418 20.25 31.0533 19.2384 31.0533 18H29.5533Z" fill="#0F172A" mask="url(#path-3-inside-1_2125_2403)"/>
<path d="M27.8033 30.75H23.8033C23.3933 30.75 23.0533 30.41 23.0533 30C23.0533 29.59 23.3933 29.25 23.8033 29.25H27.8033C28.2133 29.25 28.5533 29.59 28.5533 30C28.5533 30.41 28.2133 30.75 27.8033 30.75Z" fill="#0F172A"/>
<path d="M28.8034 26.75C28.7934 26.75 28.7934 26.75 28.8034 26.75L23.7934 26.7C23.3834 26.7 23.0434 26.36 23.0534 25.94C23.0534 25.53 23.3934 25.2 23.8034 25.2C23.8034 25.2 23.8034 25.2 23.8134 25.2L28.8134 25.25C29.2234 25.25 29.5634 25.59 29.5534 26.01C29.5434 26.42 29.2134 26.75 28.8034 26.75Z" fill="#0F172A"/>
<path d="M26.8033 22.75H23.8033C23.3933 22.75 23.0533 22.41 23.0533 22C23.0533 21.59 23.3933 21.25 23.8033 21.25H26.8033C27.2133 21.25 27.5533 21.59 27.5533 22C27.5533 22.41 27.2133 22.75 26.8033 22.75Z" fill="#0F172A"/>
<path d="M17.8234 34.72C16.9134 34.72 16.0534 34.16 15.4634 33.18L14.6434 31.82C14.3434 31.32 14.1134 30.5 14.1134 29.92V16.95C14.1134 14.91 15.7734 13.25 17.8134 13.25C19.8534 13.25 21.5134 14.91 21.5134 16.95V29.91C21.5134 30.49 21.2834 31.31 20.9834 31.81L20.1634 33.17C19.5934 34.16 18.7334 34.72 17.8234 34.72ZM17.8234 14.75C16.6134 14.75 15.6234 15.74 15.6234 16.95V29.91C15.6234 30.22 15.7734 30.77 15.9334 31.04L16.7534 32.4C17.0634 32.92 17.4534 33.21 17.8234 33.21C18.1934 33.21 18.5834 32.91 18.8934 32.4L19.7134 31.04C19.8734 30.77 20.0234 30.22 20.0234 29.91V16.95C20.0234 15.74 19.0334 14.75 17.8234 14.75Z" fill="#0F172A"/>
<path d="M20.7734 19.75H14.8634C14.4534 19.75 14.1134 19.41 14.1134 19C14.1134 18.59 14.4534 18.25 14.8634 18.25H20.7734C21.1834 18.25 21.5234 18.59 21.5234 19C21.5234 19.41 21.1834 19.75 20.7734 19.75Z" fill="#0F172A"/>
</svg>

<svg xmlns="http://www.w3.org/2000/svg" width="49" height="48" fill="none"><rect width="48" height="48" x=".333" fill="#F2F2F7" rx="12"/><path fill="#0F172A" d="M30.803 34.75h-4c-2.42 0-3.75-1.33-3.75-3.75V17c0-2.42 1.33-3.75 3.75-3.75h4c2.42 0 3.75 1.33 3.75 3.75v14c0 2.42-1.34 3.75-3.75 3.75Zm-4-20c-1.58 0-2.25.67-2.25 2.25v14c0 1.58.67 2.25 2.25 2.25h4c1.58 0 2.25-.67 2.25-2.25V17c0-1.58-.67-2.25-2.25-2.25h-4Z"/><mask id="a" fill="#fff"><path d="M28.803 18.75h-5c-.41 0-.75-.34-.75-.75s.34-.75.75-.75h5c.41 0 .75.34.75.75s-.34.75-.75.75Z"/></mask><path fill="#0F172A" d="M28.803 18.75h-5c-.41 0-.75-.34-.75-.75s.34-.75.75-.75h5c.41 0 .75.34.75.75s-.34.75-.75.75Z"/><path fill="#0F172A" d="M28.803 18.75v-1.5h-5v3h5v-1.5Zm-5 0v-1.5c.419 0 .75.332.75.75h-3a2.255 2.255 0 0 0 2.25 2.25v-1.5Zm-.75-.75h1.5c0 .418-.331.75-.75.75v-3a2.255 2.255 0 0 0-2.25 2.25h1.5Zm.75-.75v1.5h5v-3h-5v1.5Zm5 0v1.5a.745.745 0 0 1-.75-.75h3a2.255 2.255 0 0 0-2.25-2.25v1.5Zm.75.75h-1.5c0-.418.332-.75.75-.75v3a2.255 2.255 0 0 0 2.25-2.25h-1.5Z" mask="url(#a)"/><path fill="#0F172A" d="M27.803 30.75h-4c-.41 0-.75-.34-.75-.75s.34-.75.75-.75h4c.41 0 .75.34.75.75s-.34.75-.75.75ZM28.803 26.75c-.01 0-.01 0 0 0l-5.01-.05c-.41 0-.75-.34-.74-.76 0-.41.34-.74.75-.74h.01l5 .05c.41 0 .75.34.74.76-.01.41-.34.74-.75.74ZM26.803 22.75h-3c-.41 0-.75-.34-.75-.75s.34-.75.75-.75h3c.41 0 .75.34.75.75s-.34.75-.75.75ZM17.823 34.72c-.91 0-1.77-.56-2.36-1.54l-.82-1.36c-.3-.5-.53-1.32-.53-1.9V16.95c0-2.04 1.66-3.7 3.7-3.7s3.7 1.66 3.7 3.7v12.96c0 .58-.23 1.4-.53 1.9l-.82 1.36c-.57.99-1.43 1.55-2.34 1.55Zm0-19.97c-1.21 0-2.2.99-2.2 2.2v12.96c0 .31.15.86.31 1.13l.82 1.36c.31.52.7.81 1.07.81.37 0 .76-.3 1.07-.81l.82-1.36c.16-.27.31-.82.31-1.13V16.95c0-1.21-.99-2.2-2.2-2.2Z"/><path fill="#0F172A" d="M20.773 19.75h-5.91c-.41 0-.75-.34-.75-.75s.34-.75.75-.75h5.91c.41 0 .75.34.75.75s-.34.75-.75.75Z"/></svg>
